icons/pencil-17.svg

<svg width="16" height="17" viewBox="0 0 16 17" fill="none" xmlns="http://www.w3.org/2000/svg">
<path fill-rule="evenodd" clip-rule="evenodd" d="M10.53 2.60305C11.1122 2.02083 12.0561 2.02083 12.6383 2.60305L13.5633 3.52806C14.1455 4.11027 14.1455 5.05423 13.5633 5.63645L6.22859 12.9712C6.04943 13.1504 5.82757 13.2809 5.58395 13.3505L2.81449 14.1418C2.59137 14.2056 2.35124 14.1433 2.18716 13.9792C2.02308 13.8151 1.96085 13.5751 2.0246 13.3519L2.81588 10.5824C2.88548 10.3389 3.01602 10.1169 3.19518 9.93777L10.53 2.60305ZM11.7348 3.50665C11.6515 3.42347 11.5167 3.42347 11.4335 3.50665L10.3579 4.58225L11.5842 5.80846L12.6598 4.73285C12.7429 4.64968 12.7429 4.51483 12.6598 4.43166L11.7348 3.50665ZM10.6805 6.71206L9.45434 5.48585L4.09878 10.8414C4.07319 10.867 4.05454 10.8987 4.04459 10.9335L3.56927 12.5971L5.23289 12.1218C5.26769 12.1119 5.29939 12.0932 5.32499 12.0676L10.6805 6.71206Z" fill="#272431"/>
</svg>

<svg xmlns="http://www.w3.org/2000/svg" width="16" height="17" viewBox="0 0 16 17"><path fill-rule="evenodd" d="M10.53 2.603a1.49 1.49 0 012.108 0l.925.925a1.49 1.49 0 010 2.108L6.23 12.971c-.18.18-.401.31-.645.38l-2.77.79a.639.639 0 01-.79-.79l.792-2.769c.07-.243.2-.465.38-.644l7.334-7.335zm1.205.904a.213.213 0 00-.301 0l-1.076 1.075 1.226 1.226 1.076-1.075a.213.213 0 000-.301l-.925-.925zM10.68 6.712L9.454 5.486 4.1 10.84a.213.213 0 00-.054.093l-.476 1.663 1.664-.475a.213.213 0 00.092-.054l5.356-5.356z"/></svg>
